src/static/logos/gaugeio.svg

<?xml version="1.0" encoding="UTF-8" standalone="no"?>
<svg width="256px" height="248px" viewBox="0 0 256 248" version="1.1" xmlns="http://www.w3.org/2000/svg" xmlns:xlink="http://www.w3.org/1999/xlink" preserveAspectRatio="xMidYMid">
    <g>
        <path d="M230.399407,247.474 L25.5995893,247.474 C11.4617307,247.474 0,236.394 0,222.726 L0,136.1 C0,122.433 11.4617307,111.353 25.5995893,111.353 C39.7384824,111.353 51.2002131,122.433 51.2002131,136.1 L51.2002131,197.979 L168.596059,197.979 L7.49770976,42.246 C-2.49923659,32.582 -2.49923659,16.913 7.49770976,7.248 C17.4956906,-2.416 33.7045225,-2.416 43.7014689,7.248 L248.501287,205.228 C255.82314,212.304 258.013075,222.95 254.050088,232.197 C250.088136,241.444 240.75324,247.474 230.399407,247.474 Z M230.399407,123.7376 C223.848221,123.7376 217.296001,121.3216 212.297528,116.4886 L135.497725,42.2476 C125.500779,32.5826 125.500779,16.9136 135.497725,7.2486 C145.495706,-2.4154 161.703504,-2.4154 171.701484,7.2486 L248.501287,81.4906 C258.498233,91.1556 258.498233,106.8246 248.501287,116.4886 C243.502814,121.3216 236.950593,123.7376 230.399407,123.7376 Z" fill="#171717"></path>
    </g>
</svg>

<svg width="256" height="248" xmlns="http://www.w3.org/2000/svg" preserveAspectRatio="xMidYMid"><path d="M230.4 247.474H25.6c-14.138 0-25.6-11.08-25.6-24.748V136.1c0-13.667 11.462-24.747 25.6-24.747 14.138 0 25.6 11.08 25.6 24.747v61.879h117.396L7.498 42.246c-9.997-9.664-9.997-25.333 0-34.998 9.998-9.664 26.207-9.664 36.203 0l204.8 197.98c7.322 7.076 9.512 17.722 5.55 26.969-3.963 9.247-13.298 15.277-23.652 15.277zm0-123.736c-6.552 0-13.104-2.416-18.102-7.25l-76.8-74.24c-9.997-9.665-9.997-25.334 0-35 9.998-9.663 26.206-9.663 36.203 0l76.8 74.243c9.997 9.665 9.997 25.334 0 34.998-4.998 4.833-11.55 7.249-18.102 7.249z" fill="#171717"/></svg>
